icons/svg/google-pages.svg

﻿<?xml version="1.0" encoding="utf-8"?>
<!DOCTYPE svg PUBLIC "-//W3C//DTD SVG 1.1//EN" "http://www.w3.org/Graphics/SVG/1.1/DTD/svg11.dtd">
<svg xmlns="http://www.w3.org/2000/svg" xmlns:xlink="http://www.w3.org/1999/xlink" version="1.1" baseProfile="full" width="24" height="24" viewBox="0 0 24.00 24.00" enable-background="new 0 0 24.00 24.00" xml:space="preserve">
	<path fill="#000000" fill-opacity="1" stroke-width="0.2" stroke-linejoin="round" d="M 18.9994,2.99807L 12.9994,2.99807L 12.9994,7.99807L 16.9994,6.99807L 15.9994,10.9981L 20.9994,10.9981L 20.9994,4.99807C 20.9994,3.89306 20.1034,2.99807 18.9994,2.99807 Z M 16.9994,16.9981L 12.9994,15.9981L 12.9994,20.9981L 18.9994,20.9981C 20.1034,20.9981 20.9994,20.1016 20.9994,18.9981L 20.9994,12.9981L 15.9994,12.9981M 7.99939,12.9981L 2.99939,12.9981L 2.99939,18.9981C 2.99939,20.1016 3.89438,20.9981 4.99939,20.9981L 10.9994,20.9981L 10.9994,15.9981L 6.99939,16.9981M 2.99939,4.99807L 2.99939,10.9981L 7.99939,10.9981L 6.99939,6.99807L 10.9994,7.99807L 10.9994,2.99807L 4.99939,2.99807C 3.89438,2.99807 2.99939,3.89306 2.99939,4.99807 Z "/>
</svg>

<svg xmlns="http://www.w3.org/2000/svg" version="1.1" baseProfile="full" width="24" height="24" viewBox="0 0 24.00 24.00" xml:space="preserve"><path fill="#000" fill-opacity="1" stroke-width=".2" stroke-linejoin="round" d="M19 2.998h-6v5l4-1-1 4h5v-6c0-1.105-.897-2-2-2zm-2 14l-4-1v5h6c1.103 0 2-.896 2-2v-6h-5m-8 0H3v6c0 1.104.894 2 2 2h6v-5l-4 1m-4-12v6h5l-1-4 4 1v-5H5c-1.106 0-2 .895-2 2z"/></svg>
